digital/Imbassy-X-Files/65ef0811cc67439994568a45/6620182ea83c8f6dd4cf9556_cardNo5.svg

<svg fill="none" height="258" viewBox="0 0 258 258" width="258" xmlns="http://www.w3.org/2000/svg"><path d="m1 65v-56c0-4.41828 3.58172-8 8-8h56m-64 64v64m0-64h64m-64 64v64m0-64h64m-64 64v56c0 4.418 3.58172 8 8 8h56m-64-64h64m0-192v64m0-64h64m-64 64v64m0-64h64m-64 64v64m0-64h64m-64 64v64m0-64h64m-64 64h64m0-256v64m0-64h64m-64 64v64m0-64h64m-64 64v64m0-64h64m-64 64v64m0-64h64m-64 64h64m0-256v64m0-64h56c4.418 0 8 3.58172 8 8v56m-64 0v64m0-64h64m-64 64v64m0-64h64m-64 64v64m0-64h64m-64 64h56c4.418 0 8-3.582 8-8v-56m0-128v64m0 0v64" stroke="#e3e5e8"/><circle cx="129" cy="129" fill="#090a0b" r="60"/><g fill="#f9fafb"><path d="m133.547 89.6163c6.196 6.8665 10.931 14.2967 13.737 22.7687 4.865 14.685 6.053 29.762 3.987 45.092-.401 2.961-.964 5.911-1.21 8.884-.175 2.149-1.49 1.998-2.981 2.035-1.814.049-1.696-1.128-1.679-2.325.265-16.322-3.799-31.481-12.385-45.369-1.998-3.227-4.355-6.238-6.618-9.297-.849-1.148-1.07-2.169-.482-3.558 2.378-5.633 4.632-11.3152 6.944-16.9767.147-.3595.368-.6863.687-1.2663z"/><path d="m106.749 89.5859c4.709 5.3103 8.59 10.7631 11.331 16.9401 6.821 15.379 8.398 31.518 6.703 48.09-.392 3.852-1.148 7.667-1.45 11.523-.184 2.357-1.544 2.292-3.199 2.259-1.862-.041-1.536-1.381-1.519-2.484.245-17.139-4.261-32.907-13.68-47.232-1.716-2.61-3.738-5.016-5.4493-7.626-.4779-.727-.7393-2.002-.4411-2.774 2.3164-6.021 4.7954-11.9807 7.2344-17.9526.077-.1838.216-.3472.47-.7435z"/></g></svg>

<svg width="258" height="258" viewBox="0 0 258 258" fill="none" xmlns="http://www.w3.org/2000/svg">
<path d="M1 65V9C1 4.58172 4.58172 1 9 1H65M1 65V129M1 65H65M1 129V193M1 129H65M1 193V249C1 253.418 4.58172 257 9 257H65M1 193H65M65 1V65M65 1H129M65 65V129M65 65H129M65 129V193M65 129H129M65 193V257M65 193H129M65 257H129M129 1V65M129 1H193M129 65V129M129 65H193M129 129V193M129 129H193M129 193V257M129 193H193M129 257H193M193 1V65M193 1H249C253.418 1 257 4.58172 257 9V65M193 65V129M193 65H257M193 129V193M193 129H257M193 193V257M193 193H257M193 257H249C253.418 257 257 253.418 257 249V193M257 65V129M257 129V193" stroke="#E3E5E8"/>
<circle cx="129" cy="129" r="60" fill="#090A0B"/>
<path d="M133.547 89.6163C139.743 96.4828 144.478 103.913 147.284 112.385C152.149 127.07 153.337 142.147 151.271 157.477C150.87 160.438 150.307 163.388 150.061 166.361C149.886 168.51 148.571 168.359 147.08 168.396C145.266 168.445 145.384 167.268 145.401 166.071C145.666 149.749 141.602 134.59 133.016 120.702C131.018 117.475 128.661 114.464 126.398 111.405C125.549 110.257 125.328 109.236 125.916 107.847C128.294 102.214 130.548 96.5318 132.86 90.8703C133.007 90.5108 133.228 90.184 133.547 89.604V89.6163Z" fill="#F9FAFB"/>
<path d="M106.749 89.5859C111.458 94.8962 115.339 100.349 118.08 106.526C124.901 121.905 126.478 138.044 124.783 154.616C124.391 158.468 123.635 162.283 123.333 166.139C123.149 168.496 121.789 168.431 120.134 168.398C118.272 168.357 118.598 167.017 118.615 165.914C118.86 148.775 114.354 133.007 104.935 118.682C103.219 116.072 101.197 113.666 99.4857 111.056C99.0078 110.329 98.7464 109.054 99.0446 108.282C101.361 102.261 103.84 96.3013 106.279 90.3294C106.356 90.1456 106.495 89.9822 106.749 89.5859Z" fill="#F9FAFB"/>
</svg>
